**harm	**harte	**timestamp	**phrase	**leadinstrument	**kern
*M4/4	*M4/4	*	*	*	*
*G:	*G:	*	*	*	*G:
1r;	N	0	.	r	1r;
=1	=1	=1	=1	=1	=1
*>C_intro	*>C_intro	*>C_intro	*>C_intro	*>C_intro	*>C_intro
1V7	D:11	0.516	newline	horns	1D 1f# 1a 1cc
=2	=2	=2	=2	=2	=2
1V7	D:11	3.609	.	horns	1D 1f# 1a 1cc
=3	=3	=3	=3	=3	=3
*>A_intro	*>A_intro	*>A_intro	*>A_intro	*>A_intro	*>A_intro
1I7	G:maj7	6.702	newline	guitar	1G 1b 1dd 1ff#
=4	=4	=4	=4	=4	=4
1vi7	E:min7	9.81	.	guitar	1E 1g 1b 1dd
=5	=5	=5	=5	=5	=5
1V7	D:11	12.918	.	guitar	1D 1f# 1a 1cc
=6	=6	=6	=6	=6	=6
1V7	D:11	16.026	.	guitar	1D 1f# 1a 1cc
=7	=7	=7	=7	=7	=7
1iii7	B:min7	19.134	newline	guitar voice	1B 1dd 1ff# 1aa
=8	=8	=8	=8	=8	=8
1vi7	E:min11	22.243	.	guitar voice	1E 1g 1b 1dd
=9	=9	=9	=9	=9	=9
1V7	D:11	25.352	.	guitar voice	1D 1f# 1a 1cc
=10	=10	=10	=10	=10	=10
1V7	D:11	28.462	.	guitar voice	1D 1f# 1a 1cc
=11	=11	=11	=11	=11	=11
*>B_intro	*>B_intro	*>B_intro	*>B_intro	*>B_intro	*>B_intro
1vi	E:min	31.571	newline	guitar voice	1E 1g 1b
=12	=12	=12	=12	=12	=12
2ivb	C:min/b3	34.689	.	guitar voice	2c 2E- 2g
4ivm7b	C:min7/b3	36.248	.	guitar voice	4c 4E- 4g 4b
4ivb	C:min6/b3	37.028	.	guitar voice	4c 4E- 4g
=13	=13	=13	=13	=13	=13
1Ic	G:maj/5	37.807	.	guitar voice	1g 1b 1D
=14	=14	=14	=14	=14	=14
1#ivo7	C#:hdim7	40.926	.	guitar voice	1C# 1e 1g 1b
=15	=15	=15	=15	=15	=15
*>C_intro	*>C_intro	*>C_intro	*>C_intro	*>C_intro	*>C_intro
1IV	C:maj	44.044	newline	guitar voice	1C 1e 1g
=16	=16	=16	=16	=16	=16
2iii	B:min	47.121	.	guitar voice	2B 2dd 2ff#
2vi	E:min	48.659	.	guitar voice	2E 2g 2b
=17	=17	=17	=17	=17	=17
1II7	A:9	50.198	.	guitar voice	1A 1cc# 1ee 1gg
=18	=18	=18	=18	=18	=18
1II7	A:9	53.275	.	guitar voice	1A 1cc# 1ee 1gg
=19	=19	=19	=19	=19	=19
1V7	D:11	56.352	newline	guitar voice	1D 1f# 1a 1cc
=20	=20	=20	=20	=20	=20
1V7	D:11	59.415	.	guitar voice	1D 1f# 1a 1cc
=21	=21	=21	=21	=21	=21
*>A_verse	*>A_verse	*>A_verse	*>A_verse	*>A_verse	*>A_verse
1I7	G:maj7	62.478	newline	guitar voice	1G 1b 1dd 1ff#
=22	=22	=22	=22	=22	=22
1vi7	E:min7	65.632	.	guitar voice	1E 1g 1b 1dd
=23	=23	=23	=23	=23	=23
1V7	D:11	68.785	.	guitar voice	1D 1f# 1a 1cc
=24	=24	=24	=24	=24	=24
1V7	D:11	71.939	.	guitar voice	1D 1f# 1a 1cc
=25	=25	=25	=25	=25	=25
1iii7	B:min7	75.092	newline	guitar voice	1B 1dd 1ff# 1aa
=26	=26	=26	=26	=26	=26
1vi7	E:min11	78.227	.	guitar voice	1E 1g 1b 1dd
=27	=27	=27	=27	=27	=27
1V7	D:11	81.361	.	guitar voice	1D 1f# 1a 1cc
=28	=28	=28	=28	=28	=28
1V7	D:11	84.495	.	guitar voice	1D 1f# 1a 1cc
=29	=29	=29	=29	=29	=29
*>B_prechorus	*>B_prechorus	*>B_prechorus	*>B_prechorus	*>B_prechorus	*>B_prechorus
1vi	E:min	87.629	newline	guitar voice	1E 1g 1b
=30	=30	=30	=30	=30	=30
2ivb	C:min/b3	90.746	.	guitar voice	2c 2E- 2g
4ivm7b	C:min7/b3	92.305	.	guitar voice	4c 4E- 4g 4b
4ivb	C:min6/b3	93.084	.	guitar voice	4c 4E- 4g
=31	=31	=31	=31	=31	=31
1Ic	G:maj/5	93.863	.	guitar voice	1g 1b 1D
=32	=32	=32	=32	=32	=32
1#ivo7	C#:hdim7	96.98	.	guitar voice	1C# 1e 1g 1b
=33	=33	=33	=33	=33	=33
*>C_chorus	*>C_chorus	*>C_chorus	*>C_chorus	*>C_chorus	*>C_chorus
1IV	C:maj	100.097	newline	guitar voice	1C 1e 1g
=34	=34	=34	=34	=34	=34
2iii	B:min	103.202	.	guitar voice	2B 2dd 2ff#
2vi	E:min	104.755	.	guitar voice	2E 2g 2b
=35	=35	=35	=35	=35	=35
1II7	A:9	106.307	.	guitar voice	1A 1cc# 1ee 1gg
=36	=36	=36	=36	=36	=36
1II7	A:9	109.412	.	guitar voice	1A 1cc# 1ee 1gg
=37	=37	=37	=37	=37	=37
1V7	D:11	112.517	newline	guitar voice	1D 1f# 1a 1cc
=38	=38	=38	=38	=38	=38
1V7	D:11	115.602	.	guitar voice	1D 1f# 1a 1cc
=39	=39	=39	=39	=39	=39
*>D_interlude	*>D_interlude	*>D_interlude	*>D_interlude	*>D_interlude	*>D_interlude
4Im7	G:7	118.687	newline	.	4G 4b 4dd 4ff#
4Im7g	G:7/6	119.447	.	.	4G 4b 4dd 4ff#
2Im7d	G:7/b7	120.207	.	.	2g 2b 2dd 2F#
=40	=40	=40	=40	=40	=40
4Im7	G:7	121.726	.	.	4G 4b 4dd 4ff#
4Im7g	G:7/6	122.486	.	.	4G 4b 4dd 4ff#
2Im7d	G:7/b7	123.246	.	.	2g 2b 2dd 2F#
=41	=41	=41	=41	=41	=41
4Im7	G:7	124.765	.	.	4G 4b 4dd 4ff#
4Im7g	G:7/6	125.525	.	.	4G 4b 4dd 4ff#
2Im7d	G:7/b7	126.285	.	.	2g 2b 2dd 2F#
=42	=42	=42	=42	=42	=42
4Im7	G:7	127.804	.	.	4G 4b 4dd 4ff#
4Im7g	G:7/6	128.564	.	.	4G 4b 4dd 4ff#
2Im7d	G:7/b7	129.324	.	.	2g 2b 2dd 2F#
=43	=43	=43	=43	=43	=43
*>A_verse	*>A_verse	*>A_verse	*>A_verse	*>A_verse	*>A_verse
1I7	G:maj7	130.843	newline	.	1G 1b 1dd 1ff#
=44	=44	=44	=44	=44	=44
1vi7	E:min7	133.977	.	.	1E 1g 1b 1dd
=45	=45	=45	=45	=45	=45
1V7	D:11	137.11	.	.	1D 1f# 1a 1cc
=46	=46	=46	=46	=46	=46
1V7	D:11	140.244	.	.	1D 1f# 1a 1cc
=47	=47	=47	=47	=47	=47
1iii7	B:min7	143.377	newline	.	1B 1dd 1ff# 1aa
=48	=48	=48	=48	=48	=48
1vi7	E:min11	146.509	.	.	1E 1g 1b 1dd
=49	=49	=49	=49	=49	=49
1V7	D:11	149.642	.	.	1D 1f# 1a 1cc
=50	=50	=50	=50	=50	=50
1V7	D:11	152.774	.	.	1D 1f# 1a 1cc
=51	=51	=51	=51	=51	=51
*>B_prechorus	*>B_prechorus	*>B_prechorus	*>B_prechorus	*>B_prechorus	*>B_prechorus
1vi	E:min	155.906	newline	.	1E 1g 1b
=52	=52	=52	=52	=52	=52
2ivb	C:min/b3	159.051	.	.	2c 2E- 2g
4ivm7b	C:min7/b3	160.624	.	.	4c 4E- 4g 4b
4ivb	C:min6/b3	161.411	.	.	4c 4E- 4g
=53	=53	=53	=53	=53	=53
1Ic	G:maj/5	162.197	.	.	1g 1b 1D
=54	=54	=54	=54	=54	=54
1#ivo7	C#:hdim7	165.343	.	.	1C# 1e 1g 1b
=55	=55	=55	=55	=55	=55
*>C_chorus	*>C_chorus	*>C_chorus	*>C_chorus	*>C_chorus	*>C_chorus
1IV	C:maj	168.488	newline	.	1C 1e 1g
=56	=56	=56	=56	=56	=56
2iii	B:min	171.571	.	.	2B 2dd 2ff#
2vi	E:min	173.112	.	.	2E 2g 2b
=57	=57	=57	=57	=57	=57
1II7	A:9	174.654	.	.	1A 1cc# 1ee 1gg
=58	=58	=58	=58	=58	=58
1II7	A:9	177.736	.	.	1A 1cc# 1ee 1gg
=59	=59	=59	=59	=59	=59
1V7	D:11	180.819	newline	.	1D 1f# 1a 1cc
=60	=60	=60	=60	=60	=60
1V7	D:11	183.91	.	.	1D 1f# 1a 1cc
=61	=61	=61	=61	=61	=61
*>D_outro	*>D_outro	*>D_outro	*>D_outro	*>D_outro	*>D_outro
4Im7	G:7	187.001	newline	.	4G 4b 4dd 4ff#
4Im7g	G:7/6	187.763	.	.	4G 4b 4dd 4ff#
2Im7d	G:7/b7	188.525	.	.	2g 2b 2dd 2F#
=62	=62	=62	=62	=62	=62
4Im7	G:7	190.049	.	.	4G 4b 4dd 4ff#
4Im7g	G:7/6	190.811	.	.	4G 4b 4dd 4ff#
2Im7d	G:7/b7	191.573	.	.	2g 2b 2dd 2F#
=63	=63	=63	=63	=63	=63
4Im7	G:7	193.096	.	.	4G 4b 4dd 4ff#
4Im7g	G:7/6	193.858	.	.	4G 4b 4dd 4ff#
2Im7d	G:7/b7	194.62	.	.	2g 2b 2dd 2F#
=64	=64	=64	=64	=64	=64
4Im7	G:7	196.144	.	.	4G 4b 4dd 4ff#
4Im7g	G:7/6	196.906	.	.	4G 4b 4dd 4ff#
2Im7d	G:7/b7	197.668	.	.	2g 2b 2dd 2F#
=65	=65	=65	=65	=65	=65
4Im7	G:7	199.191	newline	fadeout	4G 4b 4dd 4ff#
4Im7g	G:7/6	199.958	.	fadeout	4G 4b 4dd 4ff#
2Im7d	G:7/b7	200.725	.	fadeout	2g 2b 2dd 2F#
=66	=66	=66	=66	=66	=66
4Im7	G:7	202.259	.	fadeout	4G 4b 4dd 4ff#
4Im7g	G:7/6	203.026	.	fadeout	4G 4b 4dd 4ff#
2Im7d	G:7/b7	203.793	.	fadeout	2g 2b 2dd 2F#
=67	=67	=67	=67	=67	=67
4Im7	G:7	205.327	.	fadeout	4G 4b 4dd 4ff#
4Im7g	G:7/6	206.094	.	fadeout	4G 4b 4dd 4ff#
2Im7d	G:7/b7	206.86	.	fadeout	2g 2b 2dd 2F#
=68	=68	=68	=68	=68	=68
4Im7	G:7	208.394	.	fadeout	4G 4b 4dd 4ff#
4Im7g	G:7/6	209.161	.	fadeout	4G 4b 4dd 4ff#
2Im7d	G:7/b7	209.928	.	fadeout	2g 2b 2dd 2F#
=69	=69	=69	=69	=69	=69
4Im7	G:7	211.462	newline	voice	4G 4b 4dd 4ff#
4Im7g	G:7/6	212.178	.	voice	4G 4b 4dd 4ff#
2Im7d	G:7/b7	212.894	.	voice	2g 2b 2dd 2F#
1r;	N	214.326	.	r	1r;
1r;	N	216.973	.	r	1r;
*-	*-	*-	*-	*-	*-
!!!OTL: There'll Never Be
!!!COC: Switch
!!!BillboardChartDate: 1978/11/25
!!!BillboardPeak: 36
!!!BillboardWeeksOnChart: 13
!!!SampleTargetRank: 41
!!!SampleActualRank: 41
!!!SampleID#: 1078
!!!RDF**harmony: **recip + pitch class of root + harmonic quality
!!!RDF**harte: Chris Harte's syntax, used by MIREX
!!!RDF**phrase: newline = linebreak in original McGill transcription
!!!RDF**timestamp: McGill audio timestamp in seconds
!!!RDF**leadinstrument: original McGill primary instrumentation annotation
!!!RDT: 2017/01/12/
!!!ENC: Nathaniel Condit-Schultz
!!!EST: Awating manual error checking and editing.
